Numix/scalable/status/mail-attachment-symbolic.svg

<?xml version="1.0" encoding="UTF-8" standalone="no"?>
<svg
   xmlns:osb="http://www.openswatchbook.org/uri/2009/osb"
   xmlns:dc="http://purl.org/dc/elements/1.1/"
   xmlns:cc="http://creativecommons.org/ns#"
   xmlns:rdf="http://www.w3.org/1999/02/22-rdf-syntax-ns#"
   xmlns:svg="http://www.w3.org/2000/svg"
   xmlns="http://www.w3.org/2000/svg"
   xmlns:sodipodi="http://sodipodi.sourceforge.net/DTD/sodipodi-0.dtd"
   xmlns:inkscape="http://www.inkscape.org/namespaces/inkscape"
   height="16"
   version="1.1"
   width="16"
   enable-background="new"
   id="svg2"
   inkscape:version="0.91 r"
   sodipodi:docname="mail-attachment-symbolic.svg">
  <sodipodi:namedview
     pagecolor="#ffffff"
     bordercolor="#666666"
     borderopacity="1"
     objecttolerance="10"
     gridtolerance="10"
     guidetolerance="10"
     inkscape:pageopacity="0"
     inkscape:pageshadow="2"
     inkscape:window-width="1920"
     inkscape:window-height="1056"
     id="namedview12"
     showgrid="true"
     inkscape:zoom="32"
     inkscape:cx="4.170156"
     inkscape:cy="6.2157519"
     inkscape:window-x="0"
     inkscape:window-y="24"
     inkscape:window-maximized="1"
     inkscape:current-layer="layer9">
    <inkscape:grid
       type="xygrid"
       id="grid4140" />
  </sodipodi:namedview>
  <metadata
     id="metadata90">
    <rdf:RDF>
      <cc:Work
         rdf:about="">
        <dc:format>image/svg+xml</dc:format>
        <dc:type
           rdf:resource="http://purl.org/dc/dcmitype/StillImage" />
      </cc:Work>
    </rdf:RDF>
  </metadata>
  <defs
     id="defs7386">
    <linearGradient
       id="linearGradient5606"
       osb:paint="solid">
      <stop
         id="stop5608" />
    </linearGradient>
  </defs>
  <g
     inkscape:groupmode="layer"
     id="layer9"
     inkscape:label="status"
     transform="translate(-321.00021,223)">
    <path
       style="opacity:1;fill:#bebebe;fill-opacity:1;fill-rule:nonzero;stroke:none;stroke-width:2;stroke-linecap:square;stroke-linejoin:miter;stroke-miterlimit:4;stroke-dasharray:none;stroke-dashoffset:0;stroke-opacity:1"
       d="M 8.5,1 C 8.0682025,1 7.636405,1.1108944 7.25,1.3339844 6.47719,1.7801744 6,2.60764 6,3.5 l 0,6.696844 c 0,0.50811 0.3396756,0.937984 0.7910156,1.146484 0.45133,0.2085 0.9666388,0.2085 1.4179688,0 C 8.6603244,11.134828 9,10.704954 9,10.196844 L 9,5.5 C 9,5.223 8.777,5 8.5,5 8.223,5 8,5.223 8,5.5 l 0,4.696844 c 0,0.0636 -0.041504,0.160921 -0.2089844,0.238281 -0.16747,0.0774 -0.4145612,0.0774 -0.5820312,0 C 7.0415244,10.357725 7,10.260444 7,10.196844 L 7,3.5 C 7,2.9633 7.2852,2.4695219 7.75,2.2011719 c 0.4648,-0.26835 1.0352,-0.26835 1.5,0 C 9.7148,2.4695219 10,2.9633 10,3.5 l 0,7.917547 c 0,0.92852 -0.4826494,1.781434 -1.2558594,2.240234 -0.7732,0.45881 -1.7150812,0.45881 -2.4882812,0 C 5.4826494,13.198981 5,12.346067 5,11.417547 L 5,4.5 C 5,4.223 4.777,4 4.5,4 4.223,4 4,4.223 4,4.5 l 0,6.917547 c 0,1.27458 0.6609406,2.456859 1.7441406,3.099609 1.0832,0.64275 2.4285188,0.64275 3.5117188,0 C 10.339059,13.874406 11,12.692127 11,11.417547 L 11,3.5 C 11,2.60764 10.52281,1.7801744 9.75,1.3339844 9.363595,1.1108944 8.9317975,1 8.5,1 Z"
       transform="translate(321.00021,-223)"
       id="rect4142"
       inkscape:connector-curvature="0"
       sodipodi:nodetypes="ssccssccsccccccssccccccsccssccss" />
  </g>
</svg>

<svg xmlns="http://www.w3.org/2000/svg" viewBox="0 0 16 16" style="enable-background:new">
 <g transform="translate(-321.00021,223)">
  <path d="m 8.5 1 c -0.432 0 -0.864 0.111 -1.25 0.334 -0.773 0.446 -1.25 1.274 -1.25 2.166 l 0 6.697 c 0 0.508 0.34 0.938 0.791 1.146 0.451 0.209 0.967 0.209 1.418 0 c 0.451 -0.208 0.791 -0.638 0.791 -1.146 l 0 -4.697 c 0 -0.277 -0.223 -0.5 -0.5 -0.5 -0.277 0 -0.5 0.223 -0.5 0.5 l 0 4.697 c 0 0.064 -0.042 0.161 -0.209 0.238 -0.167 0.077 -0.415 0.077 -0.582 0 c -0.167 -0.077 -0.209 -0.175 -0.209 -0.238 l 0 -6.697 c 0 -0.537 0.285 -1.03 0.75 -1.299 c 0.465 -0.268 1.035 -0.268 1.5 0 c 0.465 0.268 0.75 0.762 0.75 1.299 l 0 7.918 c 0 0.929 -0.483 1.781 -1.256 2.24 -0.773 0.459 -1.715 0.459 -2.488 0 c -0.773 -0.459 -1.256 -1.312 -1.256 -2.24 l 0 -6.918 c 0 -0.277 -0.223 -0.5 -0.5 -0.5 -0.277 0 -0.5 0.223 -0.5 0.5 l 0 6.918 c 0 1.275 0.661 2.457 1.744 3.1 1.083 0.643 2.429 0.643 3.512 0 c 1.083 -0.643 1.744 -1.825 1.744 -3.1 l 0 -7.918 c 0 -0.892 -0.477 -1.72 -1.25 -2.166 -0.386 -0.223 -0.818 -0.334 -1.25 -0.334" transform="translate(321.00021,-223)" style="fill:#bebebe;opacity:1;fill-opacity:1;stroke:none;fill-rule:nonzero"/>
 </g>
</svg>
